svgs/thin/bracket-curly.svg

<svg xmlns="http://www.w3.org/2000/svg" viewBox="0 0 256 512"><!-- Font Awesome Pro 6.0.0-alpha2 by @fontawesome - https://fontawesome.com License - https://fontawesome.com/license (Commercial License) --><path d="M80 152.453V104C80 73.125 105.125 48 136 48H184C188.422 48 192 44.422 192 40S188.422 32 184 32H136C96.297 32 64 64.297 64 104V152.453C64 193.531 41.172 230.469 4.422 248.844C1.719 250.203 0 252.969 0 256S1.719 261.797 4.422 263.156C41.172 281.531 64 318.469 64 359.547V408C64 447.703 96.297 480 136 480H184C188.422 480 192 476.422 192 472S188.422 464 184 464H136C105.125 464 80 438.875 80 408V359.547C80 317.203 58.891 278.703 24.062 256C58.891 233.297 80 194.797 80 152.453Z"/></svg>

<svg xmlns="http://www.w3.org/2000/svg" viewBox="0 0 256 512"><!--! Font Awesome Pro 6.3.0 by @fontawesome - https://fontawesome.com License - https://fontawesome.com/license (Commercial License) Copyright 2023 Fonticons, Inc. --><path d="M80 152.5V104c0-30.88 25.12-56 56-56h48C188.4 48 192 44.42 192 40S188.4 32 184 32h-48C96.3 32 64 64.3 64 104v48.45c0 41.08-22.83 78.02-59.58 96.39C1.719 250.2 0 252.1 0 256s1.719 5.797 4.422 7.156C41.17 281.5 64 318.5 64 359.5V408C64 447.7 96.3 480 136 480h48c4.422 0 8-3.578 8-8s-3.578-8-8-8h-48c-30.88 0-56-25.12-56-56v-48.45C80 317.2 58.89 278.7 24.06 256C58.89 233.3 80 194.8 80 152.5z"/></svg>
